T: Perigoldino
M: 6/8
L: 1/8
K: Gmaj
K:Gmaj
BcB|B2G ded|d2B g2g|fed cBA|B2G BcB|
B2G ded|d2B g2g|fed cBA|G3:|
|:G2G|K:C
ced cBA|G2G cBc|d2d dcd|e2c G2G|
ced cBA|G2G cBc|d2d ded|c3:|
